app/assets/images/zoom.svg

<svg enable-background="new 0 0 512 512" viewBox="0 0 512 512" xmlns="http://www.w3.org/2000/svg"><path d="m304 192v32c0 6.6-5.4 12-12 12h-56v56c0 6.6-5.4 12-12 12h-32c-6.6 0-12-5.4-12-12v-56h-56c-6.6 0-12-5.4-12-12v-32c0-6.6 5.4-12 12-12h56v-56c0-6.6 5.4-12 12-12h32c6.6 0 12 5.4 12 12v56h56c6.6 0 12 5.4 12 12zm201 284.7-28.3 28.3c-9.4 9.4-24.6 9.4-33.9 0l-99.8-99.7c-4.5-4.5-7-10.6-7-17v-16.3c-35.3 27.6-79.7 44-128 44-114.9 0-208-93.1-208-208s93.1-208 208-208 208 93.1 208 208c0 48.3-16.4 92.7-44 128h16.3c6.4 0 12.5 2.5 17 7l99.7 99.7c9.3 9.4 9.3 24.6 0 34zm-161-268.7c0-75.2-60.8-136-136-136s-136 60.8-136 136 60.8 136 136 136 136-60.8 136-136z" fill="#fff"/></svg>

<?xml version="1.0" encoding="utf-8"?>
<!-- Generator: Adobe Illustrator 23.0.0, SVG Export Plug-In . SVG Version: 6.00 Build 0)  -->
<svg version="1.1" id="Ebene_1" xmlns="http://www.w3.org/2000/svg" xmlns:xlink="http://www.w3.org/1999/xlink" x="0px" y="0px"
	 viewBox="0 0 512 512" style="enable-background:new 0 0 512 512;" xml:space="preserve">
<style type="text/css">
	.st0{fill:#FFFFFF;}
</style>
<path class="st0" d="M304,192v32c0,6.6-5.4,12-12,12h-56v56c0,6.6-5.4,12-12,12h-32c-6.6,0-12-5.4-12-12v-56h-56
	c-6.6,0-12-5.4-12-12v-32c0-6.6,5.4-12,12-12h56v-56c0-6.6,5.4-12,12-12h32c6.6,0,12,5.4,12,12v56h56C298.6,180,304,185.4,304,192z
	 M505,476.7L476.7,505c-9.4,9.4-24.6,9.4-33.9,0L343,405.3c-4.5-4.5-7-10.6-7-17V372c-35.3,27.6-79.7,44-128,44
	C93.1,416,0,322.9,0,208S93.1,0,208,0s208,93.1,208,208c0,48.3-16.4,92.7-44,128h16.3c6.4,0,12.5,2.5,17,7l99.7,99.7
	C514.3,452.1,514.3,467.3,505,476.7z M344,208c0-75.2-60.8-136-136-136S72,132.8,72,208s60.8,136,136,136S344,283.2,344,208z"/>
</svg>
